X: 1
T: Captain Peacock's Favourite
M: 6/8
L: 1/8
R: jig
K: Edor
|:EFE GFE|BEF GFE|DED FED|ABA AFD|
EFE GFE|BEF G2 A|BdB BAF|1GEE E2 D:|2GEE Eef||
|:g2e eBe|g2e efg|f2d dAd|
[1faf def|g2e eBe|gfe fed|BdB BAF|GEE Eef:|
[2faf dfa|bag agf|gfe fed|BdB BAF GEE E2D||
